X: 30523
T: Omnibus, The
R: hornpipe
M: 4/4
K: Gmajor
|:(3def|gb (3gfe dgbB|ceac Bdgc|BGdB ceag|(3fgf (3efe defa|
gb (3gfe dgbB|ceac Bdgd|egdg cgBg|ecAF G2:|
|:dc|BGFG EGDG|Bdg2 ceg2|(3dBG FG EGDB|(3cBA BG A^c (3dc=c|
BGFG EGDG|Bd (3gdB cegd|egdg cgBg|ecAF G2:|

